X:09
T: Home of the Red Fox
C: Jimmy Gaudreau
Z: TablEdited by Steve Keating for MandoZine
L: 1/8
Q: 460
M: 4/4
K: A
 z2 EF AB cd | "A"[ee][ee] [ee][ee] [e2e2] fg | af ed cB AB | "D"Ac de fd ed |
 "G"Bc dB "D"AB A=G | "A"A=G EC A,B, CD | EF AB cA cd | "E"[e2e2] [ee][ee] [e2e2] ef |
 ge fg eg fg | "A"ae cf ec ef | =gf ed cB Ac | "D"dA FB AF DF |
 "G"=GD =GB "D"A=G EF | "A"=GE DE D=C A,B, | CD E=F ^FA B=c | "E"ce c=c BA FE |
 "A"A2 AA A2 D^D | E^D =D=C A,=C D^D | E=G A=c BA =GE | A=G Ac dA d^d |
 "E"e^d ef =ge f=g | "A"a2 a2 c'4 | a=g e=g ze d=g | =c^c cc "E"(3=cBA FE |
 "A"A2 AA A2 =c^c | a2 =g2 fe =c^c | fc e=c BA FE | AF AB cA Bc |
 "E"ed ef =ge f=g | "A"af e=g fe df | ed Bd BA =GB | A=G E=G "E"ED =C^C | "A"A,8 |
